public/SF.svg

<svg width="288" height="77" viewBox="0 0 288 77" fill="none" xmlns="http://www.w3.org/2000/svg">
<rect x="0.6" y="0.6" width="286.8" height="75.8" stroke="white" stroke-width="1.2" stroke-dasharray="13 13"/>
<path d="M76.6524 32.8164C76.5695 32.0411 76.2203 31.4374 75.6048 31.0053C74.9952 30.5733 74.2021 30.3572 73.2255 30.3572C72.539 30.3572 71.9501 30.4608 71.4589 30.668C70.9676 30.8751 70.5918 31.1562 70.3314 31.5114C70.0709 31.8665 69.9378 32.2719 69.9319 32.7276C69.9319 33.1064 70.0177 33.4349 70.1893 33.7131C70.3669 33.9912 70.6066 34.228 70.9084 34.4233C71.2103 34.6127 71.5447 34.7725 71.9116 34.9027C72.2786 35.0329 72.6485 35.1424 73.0214 35.2312L74.7259 35.6573C75.4124 35.8171 76.0724 36.0331 76.7057 36.3054C77.3449 36.5777 77.916 36.9209 78.4191 37.3352C78.9281 37.7495 79.3305 38.2496 79.6265 38.8356C79.9224 39.4215 80.0704 40.1081 80.0704 40.8952C80.0704 41.9606 79.7981 42.8987 79.2536 43.7095C78.7091 44.5144 77.9219 45.1448 76.8921 45.6005C75.8682 46.0503 74.6282 46.2752 73.1723 46.2752C71.7577 46.2752 70.5296 46.0562 69.488 45.6183C68.4522 45.1803 67.6414 44.5411 67.0554 43.7006C66.4754 42.8602 66.1617 41.8363 66.1144 40.6289H69.3548C69.4022 41.2622 69.5975 41.7889 69.9407 42.2092C70.284 42.6294 70.7309 42.9431 71.2813 43.1502C71.8376 43.3574 72.4591 43.4609 73.1456 43.4609C73.8618 43.4609 74.4892 43.3544 75.0277 43.1413C75.5723 42.9223 75.9984 42.6205 76.3062 42.2358C76.6139 41.8452 76.7708 41.3894 76.7767 40.8686C76.7708 40.3951 76.6317 40.0045 76.3594 39.6967C76.0872 39.383 75.7054 39.1226 75.2142 38.9155C74.7289 38.7024 74.1607 38.513 73.5096 38.3473L71.4411 37.8146C69.9437 37.4299 68.76 36.8469 67.89 36.0657C67.0258 35.2785 66.5938 34.2339 66.5938 32.9318C66.5938 31.8606 66.8838 30.9225 67.4638 30.1175C68.0498 29.3126 68.8458 28.6882 69.852 28.2443C70.8581 27.7945 71.9974 27.5696 73.2699 27.5696C74.5602 27.5696 75.6906 27.7945 76.6613 28.2443C77.6378 28.6882 78.4043 29.3067 78.9606 30.0998C79.517 30.887 79.804 31.7925 79.8218 32.8164H76.6524ZM85.7887 46.2752C84.9246 46.2752 84.1463 46.1213 83.4538 45.8136C82.7672 45.4999 82.2227 45.0382 81.8203 44.4286C81.4237 43.819 81.2255 43.0674 81.2255 42.1737C81.2255 41.4042 81.3675 40.768 81.6516 40.2649C81.9357 39.7618 82.3233 39.3594 82.8146 39.0575C83.3058 38.7557 83.8592 38.5278 84.4747 38.3739C85.0962 38.2141 85.7384 38.0987 86.4012 38.0277C87.2002 37.9448 87.8483 37.8709 88.3455 37.8058C88.8426 37.7347 89.2037 37.6282 89.4286 37.4862C89.6594 37.3382 89.7748 37.1103 89.7748 36.8026V36.7493C89.7748 36.0805 89.5765 35.5626 89.18 35.1957C88.7835 34.8287 88.2123 34.6452 87.4666 34.6452C86.6794 34.6452 86.055 34.8169 85.5934 35.1602C85.1376 35.5034 84.8299 35.9089 84.6701 36.3764L81.6693 35.9503C81.9061 35.1217 82.2967 34.4292 82.8412 33.8729C83.3857 33.3106 84.0516 32.8904 84.8387 32.6122C85.6259 32.3281 86.4959 32.1861 87.4488 32.1861C88.1058 32.1861 88.7598 32.263 89.4108 32.4169C90.0619 32.5708 90.6567 32.8253 91.1953 33.1804C91.7339 33.5296 92.1659 34.006 92.4914 34.6097C92.8229 35.2134 92.9886 35.968 92.9886 36.8736V46H89.8991V44.1268H89.7926C89.5973 44.5056 89.322 44.8607 88.9669 45.1921C88.6177 45.5176 88.1768 45.781 87.6441 45.9822C87.1174 46.1776 86.4989 46.2752 85.7887 46.2752ZM86.6232 43.9137C87.2683 43.9137 87.8276 43.7865 88.3011 43.532C88.7746 43.2715 89.1386 42.9283 89.3931 42.5021C89.6535 42.076 89.7837 41.6114 89.7837 41.1083V39.5014C89.6831 39.5843 89.5114 39.6612 89.2688 39.7322C89.032 39.8033 88.7657 39.8654 88.4698 39.9187C88.1738 39.9719 87.8809 40.0193 87.5909 40.0607C87.3009 40.1022 87.0493 40.1377 86.8362 40.1673C86.3568 40.2324 85.9277 40.3389 85.549 40.4869C85.1702 40.6348 84.8713 40.842 84.6523 41.1083C84.4333 41.3687 84.3238 41.7061 84.3238 42.1204C84.3238 42.7122 84.5398 43.1591 84.9719 43.4609C85.404 43.7628 85.9544 43.9137 86.6232 43.9137ZM98.4339 38.0099V46H95.2201V32.3636H98.2919V34.6808H98.4517C98.7653 33.9173 99.2655 33.3106 99.952 32.8608C100.644 32.411 101.5 32.1861 102.518 32.1861C103.459 32.1861 104.278 32.3873 104.977 32.7898C105.681 33.1922 106.226 33.7752 106.61 34.5387C107.001 35.3022 107.193 36.2285 107.187 37.3175V46H103.974V37.8146C103.974 36.9032 103.737 36.19 103.263 35.6751C102.796 35.1602 102.148 34.9027 101.319 34.9027C100.757 34.9027 100.257 35.027 99.8188 35.2756C99.3868 35.5182 99.0465 35.8704 98.7979 36.332C98.5552 36.7937 98.4339 37.353 98.4339 38.0099ZM114.798 46V27.8182H126.445V30.5792H118.091V35.5153H125.646V38.2763H118.091V46H114.798ZM128.109 46V32.3636H131.225V34.6364H131.367C131.616 33.8492 132.042 33.2425 132.645 32.8164C133.255 32.3844 133.95 32.1683 134.732 32.1683C134.909 32.1683 135.107 32.1772 135.326 32.195C135.551 32.2068 135.738 32.2275 135.886 32.2571V35.2134C135.75 35.1661 135.534 35.1246 135.238 35.0891C134.948 35.0477 134.667 35.027 134.394 35.027C133.808 35.027 133.282 35.1542 132.814 35.4087C132.352 35.6573 131.988 36.0036 131.722 36.4474C131.456 36.8913 131.323 37.4033 131.323 37.9833V46H128.109ZM140.701 46.2752C139.837 46.2752 139.058 46.1213 138.366 45.8136C137.679 45.4999 137.135 45.0382 136.732 44.4286C136.336 43.819 136.138 43.0674 136.138 42.1737C136.138 41.4042 136.28 40.768 136.564 40.2649C136.848 39.7618 137.235 39.3594 137.727 39.0575C138.218 38.7557 138.771 38.5278 139.387 38.3739C140.008 38.2141 140.65 38.0987 141.313 38.0277C142.112 37.9448 142.76 37.8709 143.258 37.8058C143.755 37.7347 144.116 37.6282 144.341 37.4862C144.572 37.3382 144.687 37.1103 144.687 36.8026V36.7493C144.687 36.0805 144.489 35.5626 144.092 35.1957C143.696 34.8287 143.124 34.6452 142.379 34.6452C141.592 34.6452 140.967 34.8169 140.505 35.1602C140.05 35.5034 139.742 35.9089 139.582 36.3764L136.581 35.9503C136.818 35.1217 137.209 34.4292 137.753 33.8729C138.298 33.3106 138.964 32.8904 139.751 32.6122C140.538 32.3281 141.408 32.1861 142.361 32.1861C143.018 32.1861 143.672 32.263 144.323 32.4169C144.974 32.5708 145.569 32.8253 146.107 33.1804C146.646 33.5296 147.078 34.006 147.404 34.6097C147.735 35.2134 147.901 35.968 147.901 36.8736V46H144.811V44.1268H144.705C144.509 44.5056 144.234 44.8607 143.879 45.1921C143.53 45.5176 143.089 45.781 142.556 45.9822C142.029 46.1776 141.411 46.2752 140.701 46.2752ZM141.535 43.9137C142.18 43.9137 142.74 43.7865 143.213 43.532C143.687 43.2715 144.051 42.9283 144.305 42.5021C144.566 42.076 144.696 41.6114 144.696 41.1083V39.5014C144.595 39.5843 144.424 39.6612 144.181 39.7322C143.944 39.8033 143.678 39.8654 143.382 39.9187C143.086 39.9719 142.793 40.0193 142.503 40.0607C142.213 40.1022 141.961 40.1377 141.748 40.1673C141.269 40.2324 140.84 40.3389 140.461 40.4869C140.082 40.6348 139.783 40.842 139.564 41.1083C139.345 41.3687 139.236 41.7061 139.236 42.1204C139.236 42.7122 139.452 43.1591 139.884 43.4609C140.316 43.7628 140.866 43.9137 141.535 43.9137ZM153.346 38.0099V46H150.132V32.3636H153.204V34.6808H153.364C153.677 33.9173 154.178 33.3106 154.864 32.8608C155.557 32.411 156.412 32.1861 157.43 32.1861C158.371 32.1861 159.191 32.3873 159.889 32.7898C160.593 33.1922 161.138 33.7752 161.523 34.5387C161.913 35.3022 162.105 36.2285 162.1 37.3175V46H158.886V37.8146C158.886 36.9032 158.649 36.19 158.176 35.6751C157.708 35.1602 157.06 34.9027 156.231 34.9027C155.669 34.9027 155.169 35.027 154.731 35.2756C154.299 35.5182 153.959 35.8704 153.71 36.332C153.467 36.7937 153.346 37.353 153.346 38.0099ZM170.315 46.2663C168.953 46.2663 167.785 45.9674 166.808 45.3697C165.837 44.7719 165.089 43.9463 164.562 42.8928C164.041 41.8333 163.781 40.6141 163.781 39.2351C163.781 37.8501 164.047 36.628 164.58 35.5685C165.112 34.5032 165.864 33.6746 166.835 33.0827C167.811 32.485 168.965 32.1861 170.297 32.1861C171.404 32.1861 172.383 32.3903 173.236 32.7987C174.094 33.2011 174.777 33.7723 175.286 34.5121C175.795 35.246 176.085 36.1042 176.156 37.0866H173.085C172.96 36.4297 172.664 35.8822 172.197 35.4442C171.735 35.0004 171.117 34.7784 170.341 34.7784C169.684 34.7784 169.107 34.956 168.61 35.3111C168.113 35.6603 167.725 36.1634 167.447 36.8203C167.175 37.4773 167.039 38.2644 167.039 39.1818C167.039 40.111 167.175 40.91 167.447 41.5788C167.719 42.2417 168.101 42.7537 168.592 43.1147C169.09 43.4698 169.673 43.6474 170.341 43.6474C170.815 43.6474 171.238 43.5586 171.611 43.381C171.99 43.1976 172.306 42.9342 172.561 42.5909C172.815 42.2476 172.99 41.8304 173.085 41.3391H176.156C176.079 42.3039 175.795 43.1591 175.304 43.9048C174.813 44.6446 174.144 45.2247 173.298 45.6449C172.451 46.0592 171.457 46.2663 170.315 46.2663ZM177.795 46V32.3636H181.009V46H177.795ZM179.411 30.4283C178.902 30.4283 178.464 30.2596 178.097 29.9222C177.73 29.579 177.547 29.1676 177.547 28.6882C177.547 28.2029 177.73 27.7915 178.097 27.4542C178.464 27.1109 178.902 26.9393 179.411 26.9393C179.926 26.9393 180.364 27.1109 180.725 27.4542C181.092 27.7915 181.275 28.2029 181.275 28.6882C181.275 29.1676 181.092 29.579 180.725 29.9222C180.364 30.2596 179.926 30.4283 179.411 30.4283ZM194.092 35.968L191.162 36.2876C191.079 35.9917 190.934 35.7135 190.727 35.4531C190.526 35.1927 190.253 34.9826 189.91 34.8228C189.567 34.663 189.147 34.5831 188.649 34.5831C187.981 34.5831 187.418 34.7281 186.963 35.0181C186.513 35.3081 186.291 35.6839 186.297 36.1456C186.291 36.5421 186.436 36.8647 186.732 37.1133C187.034 37.3619 187.531 37.5661 188.223 37.7259L190.549 38.223C191.84 38.5012 192.798 38.9421 193.426 39.5458C194.059 40.1495 194.379 40.9396 194.385 41.9162C194.379 42.7744 194.127 43.532 193.63 44.1889C193.139 44.84 192.455 45.349 191.579 45.7159C190.703 46.0829 189.697 46.2663 188.561 46.2663C186.892 46.2663 185.548 45.9171 184.53 45.2188C183.512 44.5144 182.905 43.5349 182.71 42.2802L185.844 41.9783C185.986 42.5939 186.288 43.0585 186.75 43.3722C187.211 43.6858 187.812 43.8427 188.552 43.8427C189.315 43.8427 189.928 43.6858 190.39 43.3722C190.857 43.0585 191.091 42.6708 191.091 42.2092C191.091 41.8185 190.94 41.496 190.638 41.2415C190.342 40.987 189.881 40.7917 189.253 40.6555L186.927 40.1673C185.619 39.895 184.651 39.4363 184.024 38.7912C183.397 38.1402 183.086 37.3175 183.092 36.3232C183.086 35.4827 183.314 34.7547 183.776 34.1392C184.243 33.5178 184.891 33.0384 185.72 32.701C186.554 32.3577 187.516 32.1861 188.605 32.1861C190.203 32.1861 191.461 32.5264 192.378 33.207C193.301 33.8877 193.873 34.808 194.092 35.968ZM201.983 46.2663C200.621 46.2663 199.453 45.9674 198.476 45.3697C197.505 44.7719 196.757 43.9463 196.23 42.8928C195.709 41.8333 195.449 40.6141 195.449 39.2351C195.449 37.8501 195.715 36.628 196.248 35.5685C196.78 34.5032 197.532 33.6746 198.503 33.0827C199.479 32.485 200.633 32.1861 201.965 32.1861C203.072 32.1861 204.051 32.3903 204.904 32.7987C205.762 33.2011 206.445 33.7723 206.954 34.5121C207.463 35.246 207.753 36.1042 207.824 37.0866H204.753C204.628 36.4297 204.332 35.8822 203.865 35.4442C203.403 35.0004 202.785 34.7784 202.009 34.7784C201.352 34.7784 200.775 34.956 200.278 35.3111C199.781 35.6603 199.393 36.1634 199.115 36.8203C198.843 37.4773 198.707 38.2644 198.707 39.1818C198.707 40.111 198.843 40.91 199.115 41.5788C199.387 42.2417 199.769 42.7537 200.26 43.1147C200.758 43.4698 201.341 43.6474 202.009 43.6474C202.483 43.6474 202.906 43.5586 203.279 43.381C203.658 43.1976 203.974 42.9342 204.229 42.5909C204.483 42.2476 204.658 41.8304 204.753 41.3391H207.824C207.747 42.3039 207.463 43.1591 206.972 43.9048C206.481 44.6446 205.812 45.2247 204.966 45.6449C204.119 46.0592 203.125 46.2663 201.983 46.2663ZM215.411 46.2663C214.08 46.2663 212.926 45.9734 211.949 45.3874C210.973 44.8015 210.215 43.9818 209.676 42.9283C209.144 41.8748 208.877 40.6437 208.877 39.2351C208.877 37.8265 209.144 36.5924 209.676 35.533C210.215 34.4736 210.973 33.6509 211.949 33.065C212.926 32.479 214.08 32.1861 215.411 32.1861C216.743 32.1861 217.897 32.479 218.874 33.065C219.85 33.6509 220.605 34.4736 221.138 35.533C221.676 36.5924 221.946 37.8265 221.946 39.2351C221.946 40.6437 221.676 41.8748 221.138 42.9283C220.605 43.9818 219.85 44.8015 218.874 45.3874C217.897 45.9734 216.743 46.2663 215.411 46.2663ZM215.429 43.6918C216.151 43.6918 216.755 43.4935 217.24 43.0969C217.726 42.6945 218.087 42.1559 218.323 41.4812C218.566 40.8065 218.687 40.0548 218.687 39.2262C218.687 38.3917 218.566 37.6371 218.323 36.9624C218.087 36.2817 217.726 35.7402 217.24 35.3377C216.755 34.9353 216.151 34.734 215.429 34.734C214.689 34.734 214.074 34.9353 213.583 35.3377C213.097 35.7402 212.733 36.2817 212.491 36.9624C212.254 37.6371 212.136 38.3917 212.136 39.2262C212.136 40.0548 212.254 40.8065 212.491 41.4812C212.733 42.1559 213.097 42.6945 213.583 43.0969C214.074 43.4935 214.689 43.6918 215.429 43.6918Z" fill="white"/>
</svg>

<?xml version="1.0" encoding="UTF-8"?>
<svg id="Layer_1" data-name="Layer 1" xmlns="http://www.w3.org/2000/svg" viewBox="0 0 288 77">
  <defs>
    <style>
      .cls-1 {
        fill: #fff;
      }

      .cls-2 {
        stroke-dasharray: 12.56 12.56;
      }

      .cls-2, .cls-3, .cls-4 {
        fill: none;
        stroke: #fff;
        stroke-width: 1.2px;
      }

      .cls-4 {
        stroke-dasharray: 13.04 13.04;
      }
    </style>
  </defs>
  <g>
    <polyline class="cls-3" points=".6 7.1 .6 .6 7.1 .6"/>
    <line class="cls-4" x1="20.14" y1=".6" x2="274.38" y2=".6"/>
    <polyline class="cls-3" points="280.9 .6 287.4 .6 287.4 7.1"/>
    <line class="cls-2" x1="287.4" y1="19.66" x2="287.4" y2="63.62"/>
    <polyline class="cls-3" points="287.4 69.9 287.4 76.4 280.9 76.4"/>
    <line class="cls-4" x1="267.86" y1="76.4" x2="13.62" y2="76.4"/>
    <polyline class="cls-3" points="7.1 76.4 .6 76.4 .6 69.9"/>
    <line class="cls-2" x1=".6" y1="57.34" x2=".6" y2="13.38"/>
  </g>
  <path class="cls-1" d="M76.65,32.82c-.08-.78-.43-1.38-1.05-1.81-.61-.43-1.4-.65-2.38-.65-.69,0-1.28.1-1.77.31-.49.21-.87.49-1.13.84-.26.36-.39.76-.4,1.22,0,.38.09.71.26.99.18.28.42.51.72.71.3.19.64.35,1,.48.37.13.74.24,1.11.33l1.7.43c.69.16,1.35.38,1.98.65.64.27,1.21.62,1.71,1.03.51.41.91.91,1.21,1.5.3.59.44,1.27.44,2.06,0,1.07-.27,2-.82,2.81-.54.8-1.33,1.44-2.36,1.89-1.02.45-2.26.67-3.72.67s-2.64-.22-3.68-.66c-1.04-.44-1.85-1.08-2.43-1.92-.58-.84-.89-1.86-.94-3.07h3.24c.05.63.24,1.16.59,1.58.34.42.79.73,1.34.94.56.21,1.18.31,1.86.31s1.34-.11,1.88-.32c.54-.22.97-.52,1.28-.91.31-.39.46-.85.47-1.37,0-.47-.15-.86-.42-1.17-.27-.31-.65-.57-1.15-.78-.49-.21-1.05-.4-1.7-.57l-2.07-.53c-1.5-.38-2.68-.97-3.55-1.75-.86-.79-1.3-1.83-1.3-3.13,0-1.07.29-2.01.87-2.81.59-.8,1.38-1.43,2.39-1.87,1.01-.45,2.15-.67,3.42-.67s2.42.22,3.39.67c.98.44,1.74,1.06,2.3,1.86.56.79.84,1.69.86,2.72h-3.17ZM85.79,46.28c-.86,0-1.64-.15-2.33-.46-.69-.31-1.23-.78-1.63-1.38-.4-.61-.59-1.36-.59-2.25,0-.77.14-1.41.43-1.91.28-.5.67-.91,1.16-1.21.49-.3,1.04-.53,1.66-.68.62-.16,1.26-.28,1.93-.35.8-.08,1.45-.16,1.94-.22.5-.07.86-.18,1.08-.32.23-.15.35-.38.35-.68v-.05c0-.67-.2-1.19-.59-1.55-.4-.37-.97-.55-1.71-.55-.79,0-1.41.17-1.87.51-.46.34-.76.75-.92,1.22l-3-.43c.24-.83.63-1.52,1.17-2.08.54-.56,1.21-.98,2-1.26.79-.28,1.66-.43,2.61-.43.66,0,1.31.08,1.96.23.65.15,1.25.41,1.78.76.54.35.97.83,1.3,1.43.33.6.5,1.36.5,2.26v9.13h-3.09v-1.87h-.11c-.2.38-.47.73-.83,1.07-.35.33-.79.59-1.32.79-.53.2-1.15.29-1.86.29ZM86.62,43.91c.65,0,1.2-.13,1.68-.38.47-.26.84-.6,1.09-1.03.26-.43.39-.89.39-1.39v-1.61c-.1.08-.27.16-.51.23-.24.07-.5.13-.8.19-.3.05-.59.1-.88.14-.29.04-.54.08-.75.11-.48.07-.91.17-1.29.32-.38.15-.68.36-.9.62-.22.26-.33.6-.33,1.01,0,.59.22,1.04.65,1.34.43.3.98.45,1.65.45ZM98.43,38.01v7.99h-3.21v-13.64h3.07v2.32h.16c.31-.76.81-1.37,1.5-1.82.69-.45,1.55-.67,2.57-.67.94,0,1.76.2,2.46.6.7.4,1.25.99,1.63,1.75.39.76.58,1.69.58,2.78v8.68h-3.21v-8.19c0-.91-.24-1.62-.71-2.14-.47-.51-1.11-.77-1.94-.77-.56,0-1.06.12-1.5.37-.43.24-.77.59-1.02,1.06-.24.46-.36,1.02-.36,1.68ZM114.8,46v-18.18h11.65v2.76h-8.35v4.94h7.56v2.76h-7.56v7.72h-3.29ZM128.11,46v-13.64h3.12v2.27h.14c.25-.79.68-1.39,1.28-1.82.61-.43,1.3-.65,2.09-.65.18,0,.38,0,.59.03.22.01.41.03.56.06v2.96c-.14-.05-.35-.09-.65-.12-.29-.04-.57-.06-.84-.06-.59,0-1.11.13-1.58.38-.46.25-.83.59-1.09,1.04-.27.44-.4.96-.4,1.54v8.02h-3.21ZM140.7,46.28c-.86,0-1.64-.15-2.34-.46-.69-.31-1.23-.78-1.63-1.38-.4-.61-.59-1.36-.59-2.25,0-.77.14-1.41.43-1.91.28-.5.67-.91,1.16-1.21.49-.3,1.04-.53,1.66-.68.62-.16,1.26-.28,1.93-.35.8-.08,1.45-.16,1.94-.22.5-.07.86-.18,1.08-.32.23-.15.35-.38.35-.68v-.05c0-.67-.2-1.19-.6-1.55-.4-.37-.97-.55-1.71-.55-.79,0-1.41.17-1.87.51-.46.34-.76.75-.92,1.22l-3-.43c.24-.83.63-1.52,1.17-2.08.54-.56,1.21-.98,2-1.26.79-.28,1.66-.43,2.61-.43.66,0,1.31.08,1.96.23s1.25.41,1.78.76c.54.35.97.83,1.3,1.43.33.6.5,1.36.5,2.26v9.13h-3.09v-1.87h-.11c-.2.38-.47.73-.83,1.07-.35.33-.79.59-1.32.79-.53.2-1.15.29-1.85.29ZM141.54,43.91c.64,0,1.21-.13,1.68-.38.47-.26.84-.6,1.09-1.03.26-.43.39-.89.39-1.39v-1.61c-.1.08-.27.16-.51.23-.24.07-.5.13-.8.19-.3.05-.59.1-.88.14-.29.04-.54.08-.76.11-.48.07-.91.17-1.29.32-.38.15-.68.36-.9.62-.22.26-.33.6-.33,1.01,0,.59.22,1.04.65,1.34.43.3.98.45,1.65.45ZM153.35,38.01v7.99h-3.21v-13.64h3.07v2.32h.16c.31-.76.81-1.37,1.5-1.82.69-.45,1.55-.67,2.57-.67.94,0,1.76.2,2.46.6.7.4,1.25.99,1.63,1.75.39.76.58,1.69.58,2.78v8.68h-3.21v-8.19c0-.91-.24-1.62-.71-2.14-.47-.51-1.12-.77-1.94-.77-.56,0-1.06.12-1.5.37-.43.24-.77.59-1.02,1.06-.24.46-.36,1.02-.36,1.68ZM170.32,46.27c-1.36,0-2.53-.3-3.51-.9-.97-.6-1.72-1.42-2.25-2.48-.52-1.06-.78-2.28-.78-3.66s.27-2.61.8-3.67c.53-1.07,1.28-1.89,2.26-2.49.98-.6,2.13-.9,3.46-.9,1.11,0,2.09.2,2.94.61.86.4,1.54.97,2.05,1.71.51.73.8,1.59.87,2.57h-3.07c-.12-.66-.42-1.2-.89-1.64-.46-.44-1.08-.67-1.86-.67-.66,0-1.23.18-1.73.53-.5.35-.88.85-1.16,1.51-.27.66-.41,1.44-.41,2.36s.14,1.73.41,2.4c.27.66.65,1.17,1.14,1.54.5.36,1.08.53,1.75.53.47,0,.9-.09,1.27-.27.38-.18.7-.45.95-.79.25-.34.43-.76.52-1.25h3.07c-.08.96-.36,1.82-.85,2.57-.49.74-1.16,1.32-2.01,1.74-.85.41-1.84.62-2.98.62ZM177.79,46v-13.64h3.21v13.64h-3.21ZM179.41,30.43c-.51,0-.95-.17-1.31-.51-.37-.34-.55-.75-.55-1.23s.18-.9.55-1.23c.37-.34.8-.51,1.31-.51s.95.17,1.31.51c.37.34.55.75.55,1.23s-.18.89-.55,1.23c-.36.34-.8.51-1.31.51ZM194.09,35.97l-2.93.32c-.08-.3-.23-.57-.43-.83-.2-.26-.47-.47-.82-.63s-.76-.24-1.26-.24c-.67,0-1.23.15-1.69.44-.45.29-.67.67-.67,1.13,0,.4.14.72.43.97.3.25.8.45,1.49.61l2.33.5c1.29.28,2.25.72,2.88,1.32.63.6.95,1.39.96,2.37,0,.86-.26,1.62-.75,2.27-.49.65-1.18,1.16-2.05,1.53-.88.37-1.88.55-3.02.55-1.67,0-3.01-.35-4.03-1.05-1.02-.7-1.62-1.68-1.82-2.94l3.13-.3c.14.62.44,1.08.91,1.39.46.31,1.06.47,1.8.47s1.38-.16,1.84-.47c.47-.31.7-.7.7-1.16,0-.39-.15-.71-.45-.97-.3-.25-.76-.45-1.38-.59l-2.33-.49c-1.31-.27-2.28-.73-2.9-1.38-.63-.65-.94-1.47-.93-2.47,0-.84.22-1.57.68-2.18.47-.62,1.12-1.1,1.94-1.44.83-.34,1.8-.51,2.88-.51,1.6,0,2.86.34,3.77,1.02.92.68,1.49,1.6,1.71,2.76ZM201.98,46.27c-1.36,0-2.53-.3-3.51-.9-.97-.6-1.72-1.42-2.25-2.48-.52-1.06-.78-2.28-.78-3.66s.27-2.61.8-3.67c.53-1.07,1.28-1.89,2.26-2.49.98-.6,2.13-.9,3.46-.9,1.11,0,2.09.2,2.94.61.86.4,1.54.97,2.05,1.71.51.73.8,1.59.87,2.57h-3.07c-.12-.66-.42-1.2-.89-1.64-.46-.44-1.08-.67-1.86-.67-.66,0-1.23.18-1.73.53-.5.35-.88.85-1.16,1.51-.27.66-.41,1.44-.41,2.36s.14,1.73.41,2.4c.27.66.65,1.17,1.14,1.54.5.36,1.08.53,1.75.53.47,0,.9-.09,1.27-.27.38-.18.69-.45.95-.79.25-.34.43-.76.52-1.25h3.07c-.08.96-.36,1.82-.85,2.57-.49.74-1.16,1.32-2.01,1.74-.85.41-1.84.62-2.98.62ZM215.41,46.27c-1.33,0-2.49-.29-3.46-.88-.98-.59-1.73-1.41-2.27-2.46-.53-1.05-.8-2.28-.8-3.69s.27-2.64.8-3.7c.54-1.06,1.3-1.88,2.27-2.47.98-.59,2.13-.88,3.46-.88s2.49.29,3.46.88c.98.59,1.73,1.41,2.26,2.47.54,1.06.81,2.29.81,3.7s-.27,2.64-.81,3.69c-.53,1.05-1.29,1.87-2.26,2.46-.98.59-2.13.88-3.46.88ZM215.43,43.69c.72,0,1.33-.2,1.81-.59.49-.4.85-.94,1.08-1.62.24-.67.36-1.43.36-2.26s-.12-1.59-.36-2.26c-.24-.68-.6-1.22-1.08-1.62-.49-.4-1.09-.6-1.81-.6s-1.35.2-1.85.6c-.49.4-.85.94-1.09,1.62-.24.67-.35,1.43-.35,2.26s.12,1.58.35,2.26c.24.67.61,1.21,1.09,1.62.49.4,1.11.59,1.85.59Z"/>
</svg>
